!!! OTL: Literature75
!!! Chapter: 5
!!! Section: II
!!! Page: 361
!!! Mode: 
!!! Encoder: ESM
**kern
*staff1
*I"Piano
=1-
*clefG2
*k[f#c#]
*D:
*met(c|)
*M2/2
2f#/
4g/
4e/
=2
[2d/
8d/L]
8e/
8f#/
8g/J
=3
4a/
4a/
4a/
4a/
=4
2b\
2a/
=5
2dd\
2cc#\
=6
2b\
[2a/
=7
8a/L]
8g/
8b/
8a/J
4g/
4f#/
=8
4.a/
8f#/
4e/
4r
=9
2f#/
4g/
4e/
=10
[2d/
8d/L]
8e/
8f#/
8g/J
=11
!!linebreak:original
4a/
4a/
4a/
4a/
=12
2b\
2a/
=13
2dd\
2ee\
=14
2ff#\
2gg\
=15
8gg\L
8ff#\
8gg\
8ee\J
4dd\
4cc#\
=16
2dd\
2r
==
*-
